X:1
T:Title
%%score { 1 | 2 }
L:1/8
Q:1/4=100
M:6/8
K:Eb
V:1 treble nm="Grand Piano"
V:2 bass 
V:1
 G<GG/G/- G z z/ G/ | AAA A3 | BBB BAG | [DF]2 [CE] [DF]3 | GGG GG[EG] | [EA]2 [EB] [Ec]3 | %6
w: J.~J.~Jelley * * * * *||||||
 [Ec][CEA][Ec] .[B,EB]2 [CE] | [B,EG]2 D E3 | G2 G G2 G | [DA]2 [DB] G3 | ccc B2 A | GFE [DF]3 | %12
w: ||||||
[M:7/8] GG z G3 [EG] |[M:3/4] [EA]2 [EB] [Ec]3 | %14
w: ||
[M:13/16] [Ec]-<[Ec][Ec].[B,EB]3/2 z [CFA][Q:1/4=99][Q:1/4=97] | %15
w: |
[M:3/4] [B,EG]2 [A,DF] [G,E]3[Q:1/4=96][Q:1/4=94][Q:1/4=93][Q:1/4=91][Q:1/4=90][Q:1/4=88][Q:1/4=87][Q:1/4=85][Q:1/4=84][Q:1/4=82][Q:1/4=81][Q:1/4=79][Q:1/4=78][Q:1/4=76] |] %16
w: |
V:2
 [E,B,E]<[E,B,E][E,B,E]/[E,B,E]/- [E,B,E] z z/ [E,B,E]/ | [F,B,D][F,B,D][F,B,D] [F,B,D]3 | %2
 [G,B,E][G,B,E][G,B,E] [G,B,E][F,B,D][E,B,E] | [B,,A,]2 [C,G,] [B,,B,]3 | %4
 [E,B,E][E,B,E][E,B,E] [E,B,E][E,B,E][_D,B,] | [C,A,]2 [B,,G,] [A,,A,]3 | %6
 [A,,A,]A,,[A,,A,] .G,,2 A,, | B,,2 [B,,A,] [E,G,]3 | [E,B,E]2 [E,B,E] [E,B,E]2 [E,B,E] | %9
 [B,,B,]2 [B,,B,] [E,B,E]3 | [A,E][A,E][A,E] [G,B,E]2 [F,B,D] | [E,B,E][D,B,][C,=A,] [B,,B,]3 | %12
[M:7/8] [E,B,E][E,B,E] z [E,B,E]3 [_D,B,] |[M:3/4] [C,A,]2 [B,,G,] [A,,A,]3 | %14
[M:13/16] [A,,A,]-<[A,,A,][A,,A,].G,,3/2 z A,, |[M:3/4] B,,2 B,, E,3 |] %16

